assets/Person kneeling/Medium-Dark/Flat/person_kneeling_flat_medium-dark.svg

<svg width="32" height="32" viewBox="0 0 32 32" fill="none" xmlns="http://www.w3.org/2000/svg">
<path d="M16.525 11.6497L17.135 13.9897L14.735 14.6497L14.125 12.2497L16.525 11.6497Z" fill="#8B5C56"/>
<path d="M16.1653 13.7196C12.8714 14 14.0613 21.0123 14.3015 23.5H20C19.7644 21.0263 19.4591 13.4392 16.1653 13.7196Z" fill="#FF6723"/>
<path d="M10.3242 27.6289L14.511 23.5H20C20 23.5 20.401 25.6652 19.3833 27.0533H19.6243L21.3137 29L12 30C10.8018 30.1093 9.06557 29.1775 10.3271 27.6294L10.3242 27.6289Z" fill="#9B9B9B"/>
<path d="M15.994 26.4977C17.3933 26.4911 18.5245 26.4857 19.5208 26.7194C19.6553 26.7509 19.7387 26.8855 19.7071 27.0199C19.6756 27.1543 19.5411 27.2377 19.4067 27.2062C18.4727 26.9872 17.4109 26.9918 16.0059 26.9979C15.7633 26.9989 15.5105 27 15.2463 27C15.1083 27 14.9963 26.8881 14.9963 26.75C14.9963 26.612 15.1083 26.5 15.2463 26.5C15.504 26.5 15.753 26.4989 15.994 26.4977Z" fill="#636363"/>
<path d="M18.0727 20.4836L17.1196 15.53C17.0842 15.4805 17.0516 15.4338 17.0212 15.3902C16.7438 14.9922 16.6461 14.8521 16.1941 15.1754C16.0413 15.2847 15.903 15.3012 15.778 15.3162C15.4928 15.3502 15.2764 15.3761 15.1121 16.4774L15.6134 20.8443C15.6497 20.8931 15.6002 20.9664 15.5559 21.0116L13.723 23.0768C13.5742 23.1977 12.8691 23.9 12.7081 24.2077L12.7065 24.2058L12.163 25.2269C12.0685 25.4075 12.1248 25.6295 12.2838 25.7377L12.2588 25.8297C12.1535 26.0186 12.2232 26.2639 12.4122 26.3692C12.6012 26.4745 12.8464 26.4048 12.9472 26.2069C12.9924 26.2511 13.0419 26.2819 13.1003 26.3081C13.2888 26.3687 13.4891 26.2771 13.5812 26.1062L13.9363 25.4404L14.0877 25.3851C14.4085 25.2654 14.7018 25.0923 14.9634 24.8793L17.5418 22.1641C17.9849 21.7792 18.1809 21.2054 18.0727 20.4836Z" fill="#966661"/>
<path d="M20.2152 26.0096L19.0703 27.1367L19.9414 29.1484L23.8452 30.0496C24.2752 30.1096 24.5252 29.5796 24.2052 29.2796L20.6552 25.9896C20.5252 25.8796 20.3352 25.8796 20.2152 26.0096Z" fill="#635994"/>
<path d="M17.8351 18.9996C17.9451 18.9896 18.0251 18.8896 18.0151 18.7796L17.6451 15.8796C17.5451 15.0896 16.8151 14.5196 16.0251 14.6296C15.2351 14.7296 14.6651 15.4596 14.7751 16.2496L15.1651 19.2996C15.7051 19.2396 17.0251 19.0896 17.8351 18.9996Z" fill="#FF8101"/>
<path d="M14.0452 13.5695C14.9152 13.4895 16.2552 12.9195 16.5452 11.8495L16.7852 10.4195L17.0652 8.92954C16.9552 7.86954 16.0052 7.08954 14.9452 7.18954L13.6852 7.30954C12.6252 7.41954 11.8452 8.36954 11.9452 9.42954L12.0069 10.1084C11.8672 10.4574 11.7297 10.6651 11.6294 10.8167C11.5285 10.9691 11.4652 11.0647 11.4752 11.19C11.5052 11.44 11.7952 11.61 12.0452 11.59C12.0937 11.5861 12.1283 11.5755 12.1524 11.5591C12.2986 12.8129 12.5727 13.7098 14.0452 13.5695Z" fill="#966661"/>
<path d="M12.5351 10.4896C12.4651 10.4896 12.3951 10.4296 12.3851 10.3396V10.3296C12.3451 9.97957 12.6351 9.74957 12.9251 9.71957C13.2151 9.68957 13.5451 9.85957 13.5751 10.2196V10.2296C13.5851 10.3096 13.5251 10.3896 13.4551 10.3996L12.5351 10.4896Z" fill="white"/>
<path d="M12.4252 10.4997C12.4052 10.4497 12.3952 10.3997 12.3852 10.3397C12.3652 10.0797 12.5052 9.85966 12.7052 9.83966C12.9052 9.80966 13.0852 10.0097 13.1152 10.2597C13.1252 10.3197 13.1152 10.3697 13.1052 10.4297L12.4252 10.4997Z" fill="#7D4533"/>
<path d="M12.5453 10.4896C12.5153 10.4496 12.4853 10.3896 12.4853 10.3296C12.4653 10.1796 12.5553 10.0496 12.6653 10.0396C12.7853 10.0296 12.8853 10.1396 12.8953 10.2896C12.9053 10.3496 12.8953 10.4096 12.8753 10.4496L12.5453 10.4896Z" fill="black"/>
<path d="M12.5533 10.2192C12.5918 10.2155 12.6191 10.1723 12.6143 10.1229C12.6095 10.0734 12.5744 10.0363 12.5359 10.0401C12.4974 10.0438 12.4701 10.0869 12.4749 10.1364C12.4797 10.1859 12.5148 10.2229 12.5533 10.2192Z" fill="white"/>
<path d="M13.3736 11.543C13.4435 11.5588 13.4874 11.6283 13.4716 11.6982C13.3854 12.0801 13.0043 12.3116 12.6264 12.2262C12.5565 12.2104 12.5126 12.141 12.5284 12.071C12.5442 12.0011 12.6137 11.9572 12.6836 11.973C12.9257 12.0277 13.1646 11.8791 13.2184 11.641C13.2342 11.5711 13.3037 11.5272 13.3736 11.543Z" fill="#990838"/>
<path d="M13.3951 9.41779C13.3685 9.41795 13.3424 9.4103 13.3201 9.39579V9.39579C13.0886 9.27293 12.8206 9.23744 12.5651 9.29579C12.5473 9.3002 12.5289 9.30095 12.5108 9.29801C12.4928 9.29506 12.4755 9.28848 12.4601 9.27866C12.4446 9.26884 12.4314 9.25599 12.421 9.24088C12.4107 9.22578 12.4036 9.20874 12.4001 9.19079C12.3959 9.17305 12.3954 9.15467 12.3985 9.13672C12.4015 9.11877 12.4082 9.10161 12.4179 9.08625C12.4277 9.07089 12.4405 9.05763 12.4554 9.04725C12.4704 9.03686 12.4873 9.02957 12.5051 9.02579C12.8324 8.95025 13.1761 8.99946 13.4691 9.16379C13.4943 9.17996 13.5136 9.20384 13.5241 9.23188C13.5347 9.25992 13.5359 9.29062 13.5276 9.31939C13.5192 9.34817 13.5018 9.37349 13.478 9.39158C13.4541 9.40967 13.425 9.41956 13.3951 9.41979V9.41779Z" fill="#372128"/>
<path d="M15.3652 9.37957C15.3652 9.37957 15.2752 8.38957 13.6352 8.54957C12.2552 8.68957 11.8252 8.24957 11.7552 7.45957C11.6752 6.63957 12.3152 6.37957 12.6752 6.33957C13.1444 6.29223 13.406 6.33566 13.6237 6.37179C13.9117 6.4196 14.1226 6.45462 14.6352 6.24957C15.8752 5.76957 17.7852 5.81957 17.9852 7.87957C18.2552 10.7096 17.2352 10.8296 17.2352 10.8296C18.0452 10.7496 18.0452 11.7996 17.4452 11.8596C17.3975 11.8649 17.3425 11.8747 17.283 11.8855C16.8928 11.9556 16.3019 12.0617 16.2152 11.1596C16.1939 10.9348 16.1668 10.738 16.1354 10.5657C16.2131 10.4286 16.2506 10.2671 16.235 10.0996C16.2 9.71413 15.8964 9.42844 15.5325 9.39042C15.4335 9.35576 15.3652 9.37957 15.3652 9.37957Z" fill="#2D242D"/>
</svg>

<svg xmlns="http://www.w3.org/2000/svg" width="32" height="32" fill="none"><path fill="#8B5C56" d="m16.525 11.65.61 2.34-2.4.66-.61-2.4 2.4-.6Z"/><path fill="#FF6723" d="M16.165 13.72c-3.294.28-2.104 7.292-1.863 9.78H20c-.236-2.474-.54-10.06-3.835-9.78Z"/><path fill="#9B9B9B" d="m10.324 27.629 4.187-4.129H20s.401 2.165-.617 3.553h.241L21.314 29 12 30c-1.198.11-2.934-.823-1.673-2.37l-.003-.001Z"/><path fill="#636363" d="M15.994 26.498c1.4-.007 2.53-.012 3.527.221a.25.25 0 1 1-.114.487c-.934-.219-1.996-.214-3.401-.208l-.76.002a.25.25 0 0 1 0-.5l.748-.002Z"/><path fill="#966661" d="m18.073 20.484-.953-4.954-.099-.14c-.277-.398-.375-.538-.827-.215-.153.11-.291.126-.416.141-.285.034-.502.06-.666 1.161l.501 4.367c.037.05-.013.122-.057.168l-1.833 2.065c-.149.12-.854.823-1.015 1.13l-.002-.001-.543 1.02a.398.398 0 0 0 .12.512l-.024.092a.4.4 0 0 0 .153.54.39.39 0 0 0 .535-.163.508.508 0 0 0 .153.101.409.409 0 0 0 .481-.202l.355-.666.152-.055c.32-.12.614-.293.875-.506l2.579-2.715c.443-.385.639-.959.53-1.68Z"/><path fill="#635994" d="m20.215 26.01-1.145 1.127.871 2.011 3.904.902c.43.06.68-.47.36-.77l-3.55-3.29a.314.314 0 0 0-.44.02Z"/><path fill="#FF8101" d="M17.835 19c.11-.01.19-.11.18-.22l-.37-2.9c-.1-.79-.83-1.36-1.62-1.25-.79.1-1.36.83-1.25 1.62l.39 3.05c.54-.06 1.86-.21 2.67-.3Z"/><path fill="#966661" d="M14.045 13.57c.87-.08 2.21-.65 2.5-1.72l.24-1.43.28-1.49a1.953 1.953 0 0 0-2.12-1.74l-1.26.12a1.953 1.953 0 0 0-1.74 2.12l.062.678c-.14.35-.277.557-.378.709-.1.152-.164.248-.154.373.03.25.32.42.57.4a.22.22 0 0 0 .107-.03c.147 1.253.42 2.15 1.893 2.01Z"/><path fill="#fff" d="M12.535 10.49c-.07 0-.14-.06-.15-.15v-.01c-.04-.35.25-.58.54-.61.29-.03.62.14.65.5v.01c.01.08-.05.16-.12.17l-.92.09Z"/><path fill="#7D4533" d="M12.425 10.5a.75.75 0 0 1-.04-.16c-.02-.26.12-.48.32-.5.2-.03.38.17.41.42.01.06 0 .11-.01.17l-.68.07Z"/><path fill="#000" d="M12.545 10.49a.283.283 0 0 1-.06-.16c-.02-.15.07-.28.18-.29.12-.01.22.1.23.25.01.06 0 .12-.02.16l-.33.04Z"/><path fill="#fff" d="M12.553 10.22c.039-.005.066-.048.061-.097-.005-.05-.04-.087-.078-.083-.039.004-.066.047-.061.096.005.05.04.087.078.083Z"/><path fill="#990838" d="M13.374 11.543a.13.13 0 0 1 .098.155.704.704 0 0 1-.846.528.13.13 0 1 1 .058-.253.445.445 0 0 0 .534-.332.13.13 0 0 1 .156-.098Z"/><path fill="#372128" d="M13.395 9.418a.136.136 0 0 1-.075-.022 1.092 1.092 0 0 0-.755-.1.135.135 0 0 1-.165-.105.135.135 0 0 1 .018-.105.138.138 0 0 1 .087-.06 1.35 1.35 0 0 1 .964.138.139.139 0 0 1-.074.256v-.002Z"/><path fill="#2D242D" d="M15.365 9.38s-.09-.99-1.73-.83c-1.38.14-1.81-.3-1.88-1.09-.08-.82.56-1.08.92-1.12.47-.048.731-.004.949.032.288.048.499.083 1.011-.122 1.24-.48 3.15-.43 3.35 1.63.27 2.83-.75 2.95-.75 2.95.81-.08.81.97.21 1.03a2.511 2.511 0 0 0-.162.026c-.39.07-.981.176-1.068-.726a7.015 7.015 0 0 0-.08-.594.794.794 0 0 0 .1-.466.784.784 0 0 0-.702-.71c-.1-.034-.168-.01-.168-.01Z"/></svg>
